flaticon/business/wallet-2.svg

<svg xmlns="http://www.w3.org/2000/svg" width="32" height="32" viewBox="0 0 24 24">
    <path d="M 22.738281 1.683594 L 2.949219 1.683594 L 2.949219 8 L 2.421875 8 C 1.085938 8 0 9.085938 0 10.421875 L 0 16.421875 C 0 17.582031 0.945312 18.527344 2.105469 18.527344 L 2.949219 18.527344 L 2.949219 22.316406 L 24 22.316406 L 24 1.683594 Z M 21.894531 2.527344 L 21.894531 5.023438 C 20.605469 4.835938 19.582031 3.816406 19.398438 2.527344 Z M 3.789062 4.667969 C 6.058594 4.859375 8.105469 6.097656 9.339844 8 L 3.789062 8 Z M 0.84375 10.421875 C 0.84375 9.550781 1.550781 8.84375 2.421875 8.84375 L 12.210938 8.84375 L 12.210938 14.316406 L 2.105469 14.316406 C 1.972656 14.316406 1.839844 14.332031 1.714844 14.355469 C 1.675781 14.363281 1.636719 14.375 1.597656 14.386719 C 1.511719 14.40625 1.425781 14.429688 1.34375 14.464844 C 1.304688 14.480469 1.261719 14.496094 1.222656 14.515625 C 1.144531 14.550781 1.070312 14.59375 1 14.636719 C 0.964844 14.660156 0.929688 14.679688 0.894531 14.703125 C 0.878906 14.714844 0.859375 14.726562 0.839844 14.738281 L 0.839844 10.421875 Z M 15.15625 10.949219 L 15.15625 12.210938 C 15.15625 13.371094 14.214844 14.316406 13.050781 14.316406 L 13.050781 8.84375 C 14.214844 8.84375 15.15625 9.785156 15.15625 10.949219 Z M 2.105469 17.683594 C 1.410156 17.683594 0.84375 17.117188 0.84375 16.421875 C 0.84375 15.726562 1.410156 15.15625 2.105469 15.15625 L 2.949219 15.15625 L 2.949219 17.683594 Z M 3.789062 15.15625 L 9.808594 15.15625 C 8.6875 17.527344 6.40625 19.113281 3.789062 19.332031 Z M 3.789062 21.472656 L 3.789062 20.171875 C 6.867188 19.9375 9.53125 18.015625 10.722656 15.15625 L 13.050781 15.15625 C 14.675781 15.15625 16 13.835938 16 12.210938 L 16 10.949219 C 16 9.324219 14.675781 8 13.050781 8 L 10.320312 8 C 8.972656 5.601562 6.519531 4.035156 3.789062 3.824219 L 3.789062 2.527344 L 18.550781 2.527344 C 18.746094 4.28125 20.140625 5.675781 21.894531 5.871094 L 21.894531 18.128906 C 20.140625 18.324219 18.746094 19.71875 18.550781 21.472656 Z M 21.894531 21.472656 L 19.398438 21.472656 C 19.582031 20.183594 20.605469 19.164062 21.894531 18.976562 Z M 23.15625 21.472656 L 22.738281 21.472656 L 22.738281 2.527344 L 23.15625 2.527344 Z M 23.15625 21.472656"/>
</svg>

<svg xmlns="http://www.w3.org/2000/svg" width="32" height="32" viewBox="0 0 24 24">
    <path d="M22.738 1.684H2.95V8h-.527A2.424 2.424 0 0 0 0 10.422v6c0 1.16.945 2.105 2.105 2.105h.844v3.79H24V1.683zm-.843.843v2.496a2.954 2.954 0 0 1-2.497-2.496zM3.789 4.668A7.362 7.362 0 0 1 9.34 8H3.79zM.844 10.422c0-.871.707-1.578 1.578-1.578h9.789v5.472H2.105c-.132 0-.265.016-.39.04-.04.007-.078.019-.117.03-.086.02-.172.044-.254.079a2.023 2.023 0 0 0-.344.172l-.105.066c-.016.012-.036.024-.055.035v-4.316zm14.312.527v1.262c0 1.16-.941 2.105-2.105 2.105V8.844c1.164 0 2.105.941 2.105 2.105zm-13.05 6.735a1.264 1.264 0 0 1 0-2.528h.843v2.528zm1.683-2.528h6.02a7.317 7.317 0 0 1-6.02 4.176zm0 6.317v-1.301a8.157 8.157 0 0 0 6.934-5.016h2.328A2.95 2.95 0 0 0 16 12.211v-1.262A2.954 2.954 0 0 0 13.05 8h-2.73a8.226 8.226 0 0 0-6.53-4.176V2.527h14.76a3.795 3.795 0 0 0 3.345 3.344V18.13a3.795 3.795 0 0 0-3.344 3.344zm18.106 0h-2.497a2.954 2.954 0 0 1 2.497-2.496zm1.261 0h-.418V2.527h.418zm0 0"/>
</svg>
